backend/Retro-Warm.cube
TITLE "Warm Retro Film"
LUT_3D_SIZE 33
0 0.00892654 0.0543222
0 0.00796521 0.0553292
0 0.00747692 0.0598154
0 0.00682078 0.0661784
0.00105287 0.00587472 0.0731212
0.0395514 0.00456245 0.0794537
0.083711 0.00283818 0.0840162
0.133593 0.000762951 0.0856947
0.18703 0 0.0839857
0.24004 0 0.0816052
0.292241 0 0.0790417
0.343252 0 0.0763714
0.39176 0 0.0736553
0.434607 0 0.0710307
0.472297 0 0.0686046
0.509575 0 0.0662242
0.544976 0 0.0554972
0.575463 0 0.0235599
0.610864 0 0.0213016
0.646418 0 0.0191653
0.682475 0 0.0171664
0.717969 0 0.0153658
0.75259 0 0.0137942
0.786343 0 0.0124819
0.819226 0 0.0114137
0.85127 0 0.010605
0.882536 0 0.0100252
0.913237 0 0.0096437
0.943542 0 0.00941482
0.973617 0 0.009308
1 0 0.00929274
1 0 0.00929274
1 0 0.00939956
0 0.0355535 0.0529335
0 0.0348516 0.0534371
0 0.0341497 0.0568856
0 0.0333104 0.0627146
0.00163272 0.0321813 0.0696574
0.0393378 0.0307012 0.0764935
0.0825208 0.0288396 0.0819867
0.131533 0.0266575 0.0850385
0.18471 0.0242313 0.084535
0.238148 0.021622 0.0819409
0.290684 0.0188144 0.0792096
0.341924 0.0158846 0.0764172
0.390631 0.0129397 0.0736248
0.433478 0.0101015 0.0709392
0.471244 0.00746166 0.0684825
0.508598 0.00489815 0.0660868
0.545602 0.00233463 0.0637217
0.576593 0.00192264 0.034699
0.609644 0.000564584 0.0199893
0.645335 0 0.0179599
0.681559 0 0.0160678
0.717189 0 0.0143893
0.751965 0 0.0129549
0.785885 0 0.0117952
0.818967 0 0.0108797
0.851209 0 0.0102388
0.882673 0 0.00982681
0.913588 0 0.00961318
0.944091 0 0.00956741
0.974365 0 0.00962844
1 0 0.00978103
1 0 0.00996414
1 0 0.0102235
0 0.0630808 0.0526741
0 0.0622721 0.0532235
0 0.0614176 0.0556039
0 0.0604715 0.0604715
0.000839246 0.0592813 0.0669413
0.038529 0.0577249 0.0737774
0.0813153 0.0558022 0.0797589
0.129809 0.0535592 0.0837415
0.18265 0.0511025 0.0846113
0.236378 0.0485237 0.0822003
0.28925 0.0457923 0.0793622
0.34078 0.0429389 0.0765087
0.389685 0.0400854 0.0736858
0.432563 0.0373388 0.070985
0.470436 0.0348058 0.0685283
0.507897 0.0323644 0.0661631
0.545007 0.0299382 0.0638285
0.579614 0.028336 0.0530709
0.608728 0.0290074 0.0190127
0.644587 0.0269474 0.0170138
0.68101 0.0250553 0.0152743
0.716838 0.0234226 0.0137636
0.751812 0.0220798 0.0124971
0.785931 0.0210269 0.0115053
0.819211 0.0202945 0.0107729
0.851652 0.0198367 0.0102846
0.88333 0.0196841 0.0100557
0.914443 0.0197452 0.0100099
0.945144 0.0199741 0.010132
0.975631 0.0203555 0.0103761
1 0.0208286 0.0106966
1 0.0213474 0.0110475
1 0.021973 0.01149
0 0.0905928 0.0530556
0 0.0897078 0.0538643
0 0.0887465 0.055848
0 0.0877241 0.0597086
0 0.0864729 0.0653239
0.0372168 0.0848859 0.0717479
0.0801251 0.082948 0.0777905
0.128496 0.0806897 0.0822766
0.18117 0.0782177 0.0840772
0.235035 0.0756847 0.0823529
0.288228 0.0730449 0.0795605
0.340032 0.0703136 0.0767224
0.389166 0.0675822 0.07393
0.432029 0.0649729 0.0712749
0.470039 0.0625772 0.0688792
0.507652 0.0602884 0.0665751
0.5449 0.0580301 0.064332
0.581399 0.0558633 0.0621958
0.61059 0.0570077 0.0288548
0.644404 0.056199 0.0165713
0.681056 0.0545052 0.0149996
0.717083 0.0530709 0.0136568
0.75227 0.0519265 0.0125734
0.786587 0.0510872 0.0117342
0.820081 0.0505379 0.0111696
0.85272 0.0502937 0.0108644
0.884611 0.0503243 0.0108034
0.915923 0.0505989 0.0109407
0.946838 0.0510414 0.0112306
0.977523 0.0516213 0.0116426
1 0.0522927 0.0121462
1 0.0530098 0.0126802
1 0.0538338 0.0132906
0 0.118273 0.0535439
0 0.117311 0.0546883
0 0.116289 0.0566415
0 0.115221 0.0599374
0 0.113954 0.0646677
0.0351415 0.112383 0.0703593
0.078706 0.110475 0.0760662
0.127275 0.108248 0.0806592
0.179995 0.105821 0.0829938
0.233921 0.103349 0.0820478
0.287388 0.100832 0.079469
0.339483 0.0982376 0.0767987
0.388876 0.0956588 0.0741283
0.431739 0.0932326 0.0716106
0.469932 0.0910353 0.0693523
0.507713 0.0889448 0.0671855
0.545144 0.0868849 0.0650797
0.581796 0.0849165 0.0630655
0.614435 0.0848554 0.0454261
0.644587 0.0862593 0.0164187
0.681483 0.0847639 0.0150301
0.717708 0.0835126 0.0138552
0.753094 0.0825818 0.0129397
0.787625 0.0819409 0.0122835
0.821317 0.08159 0.0118868
0.85417 0.0815442 0.0117494
0.886259 0.0817884 0.0118715
0.917784 0.0822614 0.0121767
0.948913 0.0829023 0.0126497
0.979812 0.0836805 0.0132296
1 0.0845502 0.0138857
1 0.0854505 0.0145724
1 0.0864271 0.0153353
0 0.146288 0.0536202
0 0.145281 0.0551308
0 0.144244 0.0572519
0 0.143175 0.0603189
0 0.141924 0.0644388
0.0322576 0.140429 0.0693675
0.0768597 0.138598 0.074464
0.125948 0.136477 0.0787976
0.178866 0.134142 0.0813153
0.232914 0.131792 0.0809186
0.28661 0.129412 0.0788128
0.338979 0.127001 0.0764935
0.388647 0.124605 0.0740978
0.431525 0.122362 0.071809
0.469932 0.120363 0.0697337
0.507897 0.118471 0.0677501
0.545495 0.116609 0.0657969
0.5823 0.114855 0.0639506
0.617792 0.11371 0.0582895
0.645624 0.116823 0.01944
0.682017 0.115908 0.0151369
0.718441 0.11487 0.0141299
0.75404 0.114137 0.0133974
0.788785 0.113695 0.0129091
0.822675 0.113558 0.0126955
0.855741 0.113725 0.0127413
0.888029 0.114153 0.0130159
0.919738 0.114809 0.013489
0.951049 0.115633 0.0140993
0.982101 0.116564 0.0148318
1 0.117571 0.01561
1 0.118608 0.0164034
1 0.119707 0.0172732
0 0.174868 0.0527504
0 0.173861 0.0546731
0 0.172839 0.0570535
0 0.171817 0.0601205
0 0.170642 0.0638895
0.0287938 0.169253 0.0682231
0.0745251 0.167559 0.0726787
0.124331 0.165606 0.0765545
0.1776 0.163455 0.0789044
0.231785 0.161273 0.0787823
0.285634 0.159045 0.0773327
0.338231 0.156786 0.0755169
0.388174 0.154574 0.073518
0.431098 0.152514 0.0715496
0.469718 0.150713 0.0697337
0.507881 0.14902 0.0679789
0.545663 0.147356 0.0662394
0.58265 0.1458 0.0645762
0.619287 0.144366 0.063035
0.648341 0.147387 0.0295109
0.682383 0.148089 0.0150912
0.71902 0.14725 0.0142672
0.754818 0.146715 0.0137026
0.789761 0.146471 0.0133822
0.82385 0.146517 0.0133364
0.857069 0.146838 0.0135195
0.889525 0.147417 0.0139315
0.921386 0.148226 0.0145266
0.952819 0.149172 0.0152438
0.983993 0.150225 0.0160678
1 0.151339 0.0169528
1 0.152468 0.0173648
1 0.153674 0.0183108
0 0.204181 0.0504158
0 0.20325 0.0527962
0 0.202304 0.0555276
0 0.201358 0.058732
0 0.20032 0.0623789
0.0251926 0.199084 0.066331
0.071931 0.197589 0.0702525
0.122423 0.195834 0.073579
0.176043 0.193912 0.0755627
0.230289 0.191913 0.075639
0.284215 0.189837 0.0748913
0.337011 0.187716 0.0736553
0.387198 0.185672 0.0721599
0.430243 0.183795 0.0706035
0.469108 0.182162 0.0691386
0.5075 0.180652 0.0676585
0.545464 0.179202 0.0661784
0.582635 0.177829 0.064744
0.619501 0.176608 0.0634165
0.651118 0.178714 0.0400854
0.682399 0.181323 0.0147402
0.719203 0.180667 0.0140536
0.755169 0.180301 0.0136263
0.790265 0.180194 0.0134432
0.824491 0.180377 0.0135042
0.857847 0.180835 0.0137942
0.89041 0.181537 0.014313
0.922377 0.182437 0.0149844
0.953902 0.183474 0.0157931
0.985168 0.184619 0.0162356
1 0.185809 0.0171664
1 0.186984 0.0180972
1 0.188235 0.019089
0 0.234409 0.0465705
0 0.233631 0.0491798
0 0.232822 0.0523079
0 0.232044 0.0557565
0 0.231159 0.0594186
0.0219577 0.230091 0.0631418
0.0694133 0.228809 0.0666209
0.120394 0.227283 0.0694438
0.174197 0.225589 0.071046
0.228351 0.223743 0.0716869
0.282322 0.221805 0.0716106
0.335286 0.219837 0.070985
0.385718 0.217945 0.0700236
0.428946 0.21622 0.068925
0.468055 0.214771 0.0678569
0.506676 0.213443 0.066743
0.544854 0.212146 0.0655528
0.582208 0.210956 0.0643778
0.619287 0.209888 0.0632639
0.652964 0.211185 0.047776
0.681895 0.215518 0.0139467
0.718837 0.215 0.0133669
0.754925 0.21474 0.0130312
0.790112 0.214755 0.0129397
0.824445 0.215045 0.0130922
0.857893 0.215579 0.0134585
0.890547 0.216358 0.0140383
0.922576 0.217334 0.014374
0.954147 0.218418 0.0151675
0.985458 0.219608 0.0160983
1 0.220829 0.0170596
1 0.222019 0.0180056
1 0.223285 0.0190127
0 0.265751 0.0422522
0 0.265141 0.0446632
0 0.26453 0.0475624
0 0.263935 0.0509499
0 0.263249 0.054551
0.0194705 0.262394 0.0581369
0.067216 0.261326 0.0613718
0.118242 0.260044 0.0640269
0.171862 0.258518 0.0659648
0.22594 0.25684 0.0671397
0.279927 0.255039 0.067628
0.333043 0.253223 0.0675822
0.383703 0.251469 0.0671397
0.427176 0.249897 0.0665293
0.466514 0.248585 0.0658732
0.505333 0.247379 0.0651102
0.543709 0.246235 0.0642252
0.581216 0.245151 0.0633097
0.618448 0.244205 0.0624094
0.653422 0.244984 0.0516518
0.681132 0.250309 0.0140993
0.717754 0.250141 0.0120546
0.753918 0.249958 0.0117952
0.789197 0.25005 0.0117647
0.82359 0.250385 0.0119631
0.857084 0.25098 0.0123751
0.889769 0.251804 0.0125277
0.921828 0.252781 0.0132906
0.953429 0.253895 0.0141451
0.984726 0.255085 0.0150912
1 0.256291 0.0160372
1 0.257465 0.0169833
1 0.258701 0.0179446
0 0.298085 0.0377203
0 0.297658 0.0400092
0 0.297246 0.0427253
0 0.296849 0.0458534
0 0.296391 0.0492103
0.0168917 0.295766 0.0525978
0.064744 0.294911 0.0557717
0.115679 0.293828 0.0585336
0.169177 0.2925 0.0607156
0.223209 0.290974 0.0622721
0.277211 0.289326 0.0632181
0.330404 0.287633 0.0636454
0.381231 0.285985 0.0636759
0.424933 0.28452 0.0634928
0.464469 0.283299 0.0632181
0.503487 0.282185 0.0627909
0.542 0.281102 0.062211
0.579644 0.28011 0.0615396
0.617014 0.279225 0.060853
0.652522 0.27985 0.0520027
0.679835 0.285618 0.013962
0.715984 0.285817 0.0101472
0.752209 0.285695 0.00994888
0.787518 0.285817 0.00994888
0.821927 0.286183 0.0101625
0.855436 0.286778 0.0105745
0.888121 0.287587 0.0107271
0.920165 0.288563 0.0114748
0.951736 0.289647 0.0123293
0.983017 0.290806 0.0132296
1 0.291966 0.0141451
1 0.29308 0.0150301
1 0.29424 0.0159457
0 0.33135 0.0332341
0 0.331106 0.035462
0 0.330892 0.038056
0 0.330724 0.0410163
0 0.33048 0.0442054
0.0140993 0.330083 0.0474403
0.0621195 0.329458 0.0505379
0.113039 0.328557 0.0532998
0.166415 0.327398 0.0556191
0.220386 0.326009 0.0574044
0.274357 0.324468 0.0586557
0.327581 0.322866 0.0594339
0.378515 0.321294 0.0598459
0.422415 0.31989 0.0600137
0.462119 0.318715 0.06009
0.501274 0.317647 0.059968
0.53991 0.316609 0.0596628
0.577661 0.315648 0.0592203
0.615137 0.314778 0.058732
0.650446 0.315618 0.0492866
0.677699 0.321538 0.0121004
0.713695 0.321874 0.00781262
0.74992 0.321752 0.00759899
0.785229 0.321874 0.00759899
0.819623 0.322225 0.00779736
0.853117 0.322805 0.00791943
0.885756 0.323568 0.00831617
0.917754 0.324498 0.00901808
0.949248 0.325521 0.00981155
0.980453 0.326619 0.0106661
1 0.327749 0.0115511
1 0.328878 0.0124361
1 0.330083 0.0133822
0 0.365515 0.0290379
0 0.365484 0.0312352
0 0.365469 0.0337682
0 0.365515 0.0366217
0 0.365469 0.0396735
0.0114137 0.36527 0.042771
0.0595712 0.364813 0.0457465
0.110475 0.36408 0.0484627
0.16376 0.363058 0.0507973
0.217655 0.361776 0.0526894
0.271534 0.360327 0.054139
0.324727 0.358785 0.0551614
0.375708 0.357259 0.055848
0.419776 0.355886 0.0563058
0.459586 0.354742 0.0566567
0.498848 0.353674 0.0568093
0.537575 0.352636 0.056733
0.575402 0.351659 0.0565042
0.61294 0.350774 0.0561837
0.647181 0.352285 0.0433967
0.674739 0.358038 0.00827039
0.71104 0.35816 0.00514229
0.747234 0.358007 0.00489815
0.782483 0.358083 0.00486763
0.816831 0.358389 0.00502022
0.850248 0.358907 0.00523384
0.882826 0.35964 0.00541695
0.914809 0.360555 0.00611887
0.946334 0.361608 0.00691234
0.977584 0.362753 0.00781262
1 0.363958 0.00874342
1 0.365148 0.00967422
1 0.3664 0.0106508
0 0.400595 0.02533
0 0.400732 0.027512
0 0.4009 0.029984
0 0.401129 0.0327459
0 0.401266 0.0356603
0.00907912 0.401221 0.0386206
0.0573434 0.400931 0.041474
0.108217 0.400336 0.0440833
0.16141 0.39942 0.0463874
0.215183 0.39823 0.0483101
0.268956 0.396857 0.0498512
0.322057 0.395346 0.0510109
0.373022 0.393851 0.0518807
0.417166 0.392477 0.0525521
0.457038 0.391302 0.0531167
0.496361 0.390219 0.0534676
0.535149 0.389136 0.0535744
0.573022 0.388113 0.0535134
0.610559 0.387182 0.0533455
0.642603 0.389944 0.0338445
0.671305 0.394903 0.00344854
0.708141 0.394614 0.00227359
0.744259 0.3944 0.00196841
0.779477 0.39443 0.00189212
0.813809 0.394736 0.00204471
0.847257 0.3953 0.00241093
0.879896 0.396109 0.00251774
0.911925 0.397086 0.00325017
0.943496 0.398199 0.00408942
0.974777 0.399405 0.00502022
1 0.400656 0.00598154
1 0.401892 0.0069276
1 0.403174 0.00791943
0 0.436454 0.0222477
0 0.436728 0.0243992
0 0.437034 0.0268101
0 0.437385 0.0294804
0 0.437644 0.0322728
0.00733959 0.437736 0.0350958
0.0556649 0.437537 0.0378119
0.106508 0.437034 0.0403143
0.159564 0.43621 0.0425269
0.213199 0.43508 0.0444038
0.266804 0.433722 0.0459449
0.319768 0.432242 0.0471809
0.370626 0.430732 0.048127
0.414755 0.429328 0.0489357
0.454643 0.428122 0.0496376
0.493965 0.426978 0.0501411
0.532769 0.425834 0.0503853
0.570642 0.42472 0.0504463
0.607675 0.423987 0.0487831
0.63679 0.428351 0.0206912
0.668269 0.43151 0
0.705333 0.431098 0
0.741497 0.43093 0
0.776776 0.431037 0
0.811154 0.431388 0
0.844648 0.431998 0
0.877317 0.432837 0
0.909377 0.43386 0.000671397
0.940963 0.435004 0.00154116
0.972259 0.436225 0.00247196
1 0.437476 0.00343328
1 0.438727 0.00437934
1 0.440009 0.00537118
0 0.472816 0.0194858
0 0.473198 0.0216068
0 0.473594 0.0239414
0 0.474037 0.0265049
0 0.474372 0.0291752
0.00572213 0.474525 0.0318608
0.054078 0.474403 0.0344244
0.104845 0.473945 0.0367895
0.157763 0.473167 0.03888
0.211215 0.472053 0.0406653
0.264622 0.47071 0.0421607
0.317403 0.4692 0.0433661
0.368109 0.467658 0.0443427
0.412177 0.466194 0.0451972
0.452049 0.464912 0.0459754
0.491341 0.463676 0.0465553
0.530129 0.46244 0.046891
0.568032 0.46128 0.0470893
0.601892 0.46247 0.0355535
0.63032 0.467262 0.00593576
0.665583 0.468223 0
0.702678 0.467842 0
0.738888 0.467735 0
0.774182 0.467857 0
0.808591 0.468254 0
0.842115 0.468879 0
0.8748 0.469734 0
0.906844 0.470756 0
0.938445 0.471901 0
0.969726 0.473121 0
1 0.474372 0.000854505
1 0.475593 0.00177005
1 0.476875 0.00274662
0 0.509758 0.0106508
0 0.510094 0.0185702
0 0.510552 0.021088
0 0.51104 0.0235447
0 0.511421 0.0260929
0.00383001 0.51162 0.0286107
0.0521553 0.511528 0.0310216
0.102815 0.511086 0.0332189
0.155566 0.510292 0.035172
0.20882 0.509178 0.03682
0.262013 0.50779 0.0382086
0.31458 0.506233 0.0393378
0.365118 0.504616 0.0402686
0.409186 0.503105 0.0411383
0.449073 0.501808 0.0419928
0.488441 0.500587 0.04271
0.527321 0.499397 0.0432288
0.563699 0.499214 0.0386206
0.5935 0.502815 0.0149844
0.624964 0.505806 0
0.662791 0.505302 0
0.699916 0.504952 0
0.736141 0.504845 0
0.77145 0.504997 0
0.805859 0.505394 0
0.839368 0.506035 0
0.872053 0.506874 0
0.904082 0.507897 0
0.935653 0.509026 0
0.966903 0.510231 0
0.998032 0.511437 0
1 0.512627 0
1 0.513848 0
0 0.547143 0
0 0.548089 0.00167849
0 0.548363 0.0108644
0 0.548348 0.0194858
0 0.548638 0.0230259
0.00173953 0.548806 0.025391
0.0499886 0.548699 0.0276188
0.100496 0.548241 0.029633
0.153033 0.547402 0.0314031
0.206073 0.546242 0.0328985
0.259098 0.544839 0.0341955
0.311559 0.543313 0.0352941
0.362081 0.541741 0.0362554
0.406256 0.540276 0.0371862
0.446204 0.539025 0.0381323
0.485634 0.537835 0.0389563
0.522789 0.537713 0.0340887
0.554482 0.540291 0.0155795
0.585321 0.543236 0
0.622126 0.543114 0
0.660029 0.542565 0
0.697154 0.542229 0
0.733379 0.542123 0
0.768673 0.542245 0
0.803052 0.542626 0
0.836545 0.543236 0
0.869169 0.54406 0
0.901167 0.545037 0
0.932692 0.54612 0
0.963897 0.54725 0
0.994949 0.548409 0
1 0.549523 0
1 0.550668 0
0 0.584344 0
0 0.585428 0
0 0.586419 0
0 0.587198 0
0 0.587152 0.00730907
0.00352483 0.586572 0.016144
0.0483711 0.585824 0.0228122
0.098085 0.585153 0.0261387
0.150561 0.584375 0.0278172
0.203571 0.583276 0.0292668
0.256535 0.581949 0.030518
0.308934 0.580484 0.0316014
0.359411 0.578958 0.0325628
0.403601 0.577539 0.0334936
0.442557 0.576913 0.0312657
0.478767 0.57763 0.0223239
0.512413 0.579507 0.00741588
0.545296 0.581323 0
0.58175 0.581003 0
0.619486 0.580316 0
0.657374 0.579751 0
0.694484 0.579385 0
0.730663 0.579248 0
0.765927 0.579339 0
0.800275 0.579675 0
0.833707 0.580224 0
0.866285 0.580987 0
0.898207 0.581888 0
0.929656 0.58291 0
0.960784 0.583963 0
0.99176 0.585031 0
1 0.586038 0
1 0.587091 0
0 0.621256 0
0 0.622248 0
0 0.623178 0
0 0.624079 0
0 0.624918 0
0.0125277 0.625574 0
0.0562448 0.62562 0
0.101671 0.624872 0.00447089
0.150622 0.623667 0.00987259
0.201526 0.622263 0.0139773
0.253117 0.620844 0.0163119
0.304143 0.619608 0.0166323
0.352834 0.618692 0.0146181
0.394995 0.618402 0.00996414
0.432044 0.61883 0.00271611
0.468101 0.619516 0
0.504875 0.619486 0
0.542214 0.618677 0
0.579385 0.617899 0
0.61709 0.617182 0
0.654948 0.616587 0
0.691997 0.616159 0
0.728145 0.615961 0
0.763333 0.615991 0
0.797604 0.616251 0
0.830961 0.616724 0
0.863462 0.61738 0
0.895308 0.618189 0
0.926665 0.619089 0
0.957687 0.620035 0
0.988556 0.620966 0
1 0.621866 0
1 0.622766 0
0 0.657526 0
0 0.658534 0
0 0.659495 0
0 0.660456 0
0 0.661326 0
0.0109102 0.662043 0
0.0559091 0.662486 0
0.102464 0.662623 0
0.150881 0.66244 0
0.199802 0.661936 0
0.248768 0.661189 0
0.297368 0.660243 0
0.344656 0.659266 0
0.387518 0.658351 0
0.426413 0.657572 0
0.464881 0.656779 0
0.502937 0.65594 0
0.54023 0.655085 0
0.577356 0.654261 0
0.61503 0.653483 0
0.652827 0.652827 0
0.689799 0.652323 0
0.725872 0.652064 0
0.760983 0.652003 0
0.795163 0.652171 0
0.828428 0.652537 0
0.860822 0.653101 0
0.892546 0.653803 0
0.923781 0.654582 0
0.954681 0.655406 0
0.985428 0.656214 0
1 0.656962 0
1 0.657725 0
0 0.693675 0
0 0.694728 0
0 0.69572 0
0 0.696712 0
0 0.697612 0
0.0103151 0.698329 0
0.055314 0.698802 0
0.101884 0.69894 0
0.150301 0.698741 0
0.19913 0.698238 0
0.24802 0.697475 0
0.296483 0.696529 0
0.343709 0.695506 0
0.386267 0.69456 0
0.425101 0.693721 0
0.463493 0.692882 0
0.501472 0.691981 0
0.538689 0.691066 0
0.575753 0.690166 0
0.613382 0.689311 0
0.651102 0.688563 0
0.687984 0.687984 0
0.723949 0.687617 0
0.758953 0.687449 0
0.793027 0.687495 0
0.826169 0.687755 0
0.858427 0.688182 0
0.890013 0.688746 0
0.921111 0.689387 0
0.951843 0.690044 0
0.982437 0.6907 0
1 0.691279 0
1 0.69189 0
0 0.72961 0
0 0.730678 0
0 0.731701 0
0 0.732692 0
0 0.733593 0
0.0108186 0.73431 0
0.0558022 0.734752 0
0.102342 0.73489 0
0.150713 0.734661 0
0.199405 0.734127 0
0.248173 0.733318 0
0.296498 0.732326 0
0.343526 0.731258 0
0.385657 0.730251 0
0.424414 0.729366 0
0.462699 0.728435 0
0.500557 0.727459 0
0.537667 0.726452 0
0.574655 0.72546 0
0.612238 0.724498 0
0.649836 0.723644 0
0.68661 0.722942 0
0.722454 0.722454 0
0.757321 0.722148 0
0.791257 0.722057 0
0.824247 0.722164 0
0.856352 0.722438 0
0.887785 0.72285 0
0.918715 0.723323 0
0.949294 0.723827 0
0.979721 0.724315 0
1 0.724743 0
1 0.725185 0
0 0.765255 0
0 0.766323 0
0 0.76733 0
0 0.768307 0
0 0.769192 0
0.0123445 0.769879 0
0.0572824 0.770291 0
0.103761 0.770367 0
0.152071 0.770108 0
0.200534 0.769512 0
0.249134 0.768643 0
0.297261 0.76759 0
0.34406 0.766445 0
0.385626 0.765362 0
0.424277 0.764385 0
0.462425 0.763363 0
0.50013 0.76228 0
0.537102 0.761166 0
0.574014 0.760052 0
0.611536 0.758968 0
0.648997 0.757961 0
0.685634 0.757122 0
0.721309 0.756481 0
0.756024 0.756024 0
0.789792 0.755779 0
0.822629 0.755718 0
0.854566 0.755825 0
0.885847 0.756069 0
0.916609 0.75639 0
0.947036 0.756741 0
0.97731 0.757076 0
1 0.757351 0
1 0.757626 0
0 0.800519 0
0 0.801572 0
0 0.802548 0
0 0.803494 0
0 0.804334 0
0.0147555 0.804974 0
0.059617 0.805325 0
0.10602 0.805341 0
0.154192 0.80499 0
0.202396 0.804318 0
0.250782 0.803372 0
0.29865 0.802228 0
0.345174 0.800992 0
0.386084 0.799817 0
0.424582 0.798718 0
0.462577 0.797574 0
0.500099 0.796368 0
0.536919 0.795102 0
0.573739 0.793851 0
0.61117 0.792599 0
0.648463 0.791455 0
0.684932 0.790448 0
0.720455 0.789639 0
0.755016 0.789029 0
0.788617 0.788617 0
0.821286 0.788403 0
0.853071 0.788357 0
0.884199 0.788449 0
0.914809 0.788602 0
0.945068 0.788785 0
0.975174 0.788968 0
1 0.789075 0
1 0.789197 0
0 0.83537 0
0 0.836362 0
0 0.837293 0
0 0.838178 0
0 0.838941 0
0.0179599 0.839506 0
0.0626993 0.83978 0
0.10901 0.839689 0
0.15697 0.839261 0
0.204883 0.838499 0
0.25301 0.83743 0
0.300572 0.836179 0
0.346746 0.834806 0
0.386938 0.833524 0
0.425269 0.832273 0
0.463066 0.830991 0
0.500374 0.829633 0
0.537026 0.828214 0
0.573724 0.82678 0
0.611078 0.825391 0
0.648203 0.824079 0
0.684504 0.822919 0
0.719875 0.821942 0
0.754269 0.82118 0
0.787717 0.8206 0
0.820233 0.820233 0
0.851865 0.82002 0
0.882826 0.819959 0
0.913268 0.819959 0
0.943389 0.819989 0
0.973327 0.820005 0
1 0.819974 0
1 0.819928 0
0 0.869734 0
0 0.870634 0
0 0.871489 0
0 0.872282 0
0 0.872953 0
0.0217594 0.873426 0
0.0663462 0.873594 0
0.112551 0.873396 0
0.16022 0.872847 0
0.207797 0.871962 0
0.255619 0.870771 0
0.302831 0.869383 0
0.348623 0.867857 0
0.388037 0.866423 0
0.426169 0.865019 0
0.463767 0.863584 0
0.500847 0.862043 0
0.537331 0.860471 0
0.573938 0.858885 0
0.6112 0.857328 0
0.648157 0.855863 0
0.684306 0.854536 0
0.719509 0.853422 0
0.75375 0.852491 0
0.787045 0.851759 0
0.819394 0.851225 0
0.850874 0.850874 0
0.881666 0.850645 0
0.911971 0.850492 0
0.941924 0.850355 0
0.971725 0.850233 0
1 0.850034 0
1 0.849851 0
0 0.903578 0
0 0.904402 0
0 0.905135 0
0 0.905837 0
0 0.906386 0
0.0257877 0.906737 0
0.0702068 0.906767 0
0.116274 0.906447 0
0.163531 0.905745 0
