backend/Retro-Warm.cube
TITLE "Warm Retro Film"
LUT_3D_SIZE 5
0 0.00892654 0.0543222
0.18703 0 0.0839857
0.544976 0 0.0554972
0.819226 0 0.0114137
1 0 0.00939956
0 0.234409 0.0465705
0.174197 0.225589 0.071046
0.544854 0.212146 0.0655528
0.824445 0.215045 0.0130922
1 0.223285 0.0190127
0 0.509758 0.0106508
0.155566 0.510292 0.035172
0.527321 0.499397 0.0432288
0.805859 0.505394 0
1 0.513848 0
0 0.800519 0
0.154192 0.80499 0
0.500099 0.796368 0
0.788617 0.788617 0
1 0.789197 0
0 1 0.00181582
0.173846 1 0
0.499855 1 0
0.780255 1 0
1 1 0
0 0.00588998 0.268132
0.196612 0 0.238514
0.546319 0 0.198215
0.817639 0 0.226581
1 0 0.225635
0 0.232853 0.24773
0.187167 0.230564 0.244755
0.551156 0.220951 0.177813
0.839918 0.217273 0.186572
1 0.225422 0.237842
0 0.512444 0.217197
0.164355 0.516945 0.207034
0.535912 0.508156 0.162234
0.832517 0.50515 0.151247
1 0.515801 0.218418
0 0.802655 0.207721
0.158022 0.806241 0.20145
0.517617 0.79472 0.168811
0.81413 0.784619 0.143694
1 0.788037 0.191379
0 1 0.218662
0.172442 1 0.213382
0.497566 1 0.196201
0.777523 1 0.180652
1 1 0.174487
0 0 0.553475
0.189899 0 0.535317
0.534035 0 0.496452
0.812009 0 0.508965
1 0 0.510262
0 0.227756 0.534478
0.182849 0.226749 0.533791
0.538582 0.219455 0.482231
0.838895 0.217807 0.435386
1 0.223011 0.530846
0 0.509941 0.507759
0.161913 0.514656 0.512718
0.512459 0.50811 0.506188
0.831128 0.507271 0.381628
1 0.515282 0.417136
0 0.800198 0.497765
0.154513 0.803723 0.495628
0.505745 0.793362 0.456214
0.813275 0.783764 0.363546
1 0.783505 0.345907
0 1 0.511482
0.164813 1 0.505592
0.496864 1 0.465461
0.792676 1 0.393896
1 1 0.452628
0 0 0.849439
0.182147 0 0.839887
0.524758 0 0.820218
0.807523 0 0.807523
1 0 0.81004
0 0.223774 0.833066
0.180179 0.224079 0.833524
0.531151 0.216648 0.815076
0.827726 0.21474 0.789654
1 0.221225 0.831022
0 0.508354 0.808911
0.160632 0.512993 0.813458
0.510903 0.5066 0.80705
0.813581 0.505226 0.750546
1 0.514672 0.703304
0 0.798306 0.798306
0.151507 0.801053 0.801038
0.493385 0.789685 0.789685
0.778866 0.778866 0.778866
1 0.78056 0.624048
0 1 0.808026
0.157885 1 0.801221
0.486381 1 0.773648
0.774578 1 0.719448
1 1 0.757366
0 0 1
0.179843 0 1
0.523384 0 1
0.807477 0 1
1 0 1
0 0.224155 1
0.183352 0.22565 1
0.531777 0.218463 1
0.825254 0.215641 1
1 0.223453 1
0 0.510674 1
0.164813 0.515419 1
0.513161 0.509102 1
0.808103 0.506203 1
1 0.513741 1
0 0.800198 1
0.153796 0.802106 1
0.493355 0.789746 1
0.77792 0.77792 1
1 0.776623 0.960922
0 1 1
0.15584 1 1
0.482017 1 1
0.760967 1 1
1 1 1
