backend/Retro-Warm.cube
TITLE "Warm Retro Film"
LUT_3D_SIZE 9
0 0.00892654 0.0543222
0.00105287 0.00587472 0.0731212
0.18703 0 0.0839857
0.39176 0 0.0736553
0.544976 0 0.0554972
0.682475 0 0.0171664
0.819226 0 0.0114137
0.943542 0 0.00941482
1 0 0.00939956
0 0.118273 0.0535439
0 0.113954 0.0646677
0.179995 0.105821 0.0829938
0.388876 0.0956588 0.0741283
0.545144 0.0868849 0.0650797
0.681483 0.0847639 0.0150301
0.821317 0.08159 0.0118868
0.948913 0.0829023 0.0126497
1 0.0864271 0.0153353
0 0.234409 0.0465705
0 0.231159 0.0594186
0.174197 0.225589 0.071046
0.385718 0.217945 0.0700236
0.544854 0.212146 0.0655528
0.681895 0.215518 0.0139467
0.824445 0.215045 0.0130922
0.954147 0.218418 0.0151675
1 0.223285 0.0190127
0 0.365515 0.0290379
0 0.365469 0.0396735
0.16376 0.363058 0.0507973
0.375708 0.357259 0.055848
0.537575 0.352636 0.056733
0.674739 0.358038 0.00827039
0.816831 0.358389 0.00502022
0.946334 0.361608 0.00691234
1 0.3664 0.0106508
0 0.509758 0.0106508
0 0.511421 0.0260929
0.155566 0.510292 0.035172
0.365118 0.504616 0.0402686
0.527321 0.499397 0.0432288
0.662791 0.505302 0
0.805859 0.505394 0
0.935653 0.509026 0
1 0.513848 0
0 0.657526 0
0 0.661326 0
0.150881 0.66244 0
0.344656 0.659266 0
0.502937 0.65594 0
0.652827 0.652827 0
0.795163 0.652171 0
0.923781 0.654582 0
1 0.657725 0
0 0.800519 0
0 0.804334 0
0.154192 0.80499 0
0.345174 0.800992 0
0.500099 0.796368 0
0.648463 0.791455 0
0.788617 0.788617 0
0.914809 0.788602 0
1 0.789197 0
0 0.936904 0
0 0.939208 0
0.166659 0.937957 0
0.35198 0.931731 0
0.501747 0.924681 0
0.64802 0.91722 0
0.785672 0.911864 0
0.909422 0.909422 0
1 0.90782 0
0 1 0.00181582
0 1 0.00111391
0.173846 1 0
0.352697 1 0
0.499855 1 0
0.644327 1 0
0.780255 1 0
0.902724 1 0
1 1 0
0 0.00767529 0.155749
0.0193179 0.00518807 0.149752
0.193973 0.000167849 0.135958
0.392889 0 0.123796
0.547967 0 0.113191
0.681865 0 0.119097
0.818845 0 0.113558
0.943496 0 0.111833
1 0 0.112093
0 0.116838 0.147601
0.0203403 0.113817 0.144518
0.189837 0.108934 0.131807
0.391608 0.0995346 0.116716
0.548043 0.0910353 0.108965
0.69192 0.0845045 0.106126
0.822049 0.0822919 0.114977
0.949966 0.0839246 0.116014
1 0.0876936 0.118914
0 0.234089 0.13431
0.0012665 0.233387 0.131975
0.183307 0.230304 0.124941
0.390921 0.222934 0.111604
0.549859 0.217563 0.106477
0.699519 0.21387 0.103197
0.825971 0.21651 0.116854
0.955749 0.219959 0.119463
1 0.224826 0.123293
0 0.366918 0.116899
0 0.368795 0.116686
0.170443 0.367773 0.112673
0.38146 0.362478 0.104906
0.543603 0.35819 0.0998398
0.69485 0.355154 0.0967117
0.818311 0.359823 0.108721
0.94786 0.363119 0.111162
1 0.367971 0.114946
0 0.511955 0.104677
0 0.515007 0.106004
0.16144 0.514763 0.104128
0.369207 0.50956 0.0978408
0.532509 0.504692 0.0922866
0.685344 0.501228 0.0884565
0.808606 0.506706 0.0973373
0.937179 0.510582 0.100435
1 0.515312 0.103975
0 0.659022 0.0948501
0 0.662425 0.096849
0.152926 0.662028 0.0953994
0.358907 0.657359 0.090486
0.521889 0.652476 0.0855268
0.675364 0.648249 0.0812695
0.796414 0.653422 0.0868544
0.924819 0.655634 0.088304
1 0.658518 0.0903487
0 0.802075 0.0933242
0 0.805798 0.0959182
0.15639 0.806332 0.0957656
0.346761 0.802152 0.0916152
0.500999 0.797314 0.0870222
0.649165 0.792157 0.0821698
0.789059 0.789059 0.0791028
0.914992 0.788785 0.0784466
1 0.789136 0.0783551
0 0.938003 0.100114
0 0.940063 0.10132
0.167788 0.938552 0.099443
0.352331 0.932082 0.09337
0.501793 0.924773 0.0867018
0.647868 0.917067 0.0796979
0.785275 0.911467 0.0745251
0.908827 0.908827 0.0718853
1 0.907073 0.0700236
0 1 0.104982
0 1 0.104051
0.173816 1 0.100099
0.352224 1 0.0920119
0.499184 1 0.0834211
0.643549 1 0.0747539
0.77937 1 0.0682536
0.901778 1 0.0646372
1 1 0.0621347
0 0.00588998 0.268132
0.0231632 0.00296025 0.261021
0.196612 0 0.238514
0.390295 0 0.215412
0.546319 0 0.198215
0.680354 0 0.231876
0.817639 0 0.226581
0.942596 0 0.225132
1 0 0.225635
0 0.115084 0.259998
0.0184787 0.1122 0.257053
0.192325 0.10779 0.241077
0.38912 0.100389 0.204074
0.547219 0.0926375 0.18909
0.695018 0.0863966 0.17995
0.821942 0.0821698 0.228855
0.950179 0.0841077 0.230121
1 0.0880903 0.233173
0 0.232853 0.24773
0.0078584 0.232624 0.247059
0.187167 0.230564 0.244755
0.385809 0.22565 0.208133
0.551156 0.220951 0.177813
0.70135 0.217395 0.17438
0.839918 0.217273 0.186572
0.95642 0.2206 0.233936
1 0.225422 0.237842
0 0.366644 0.231052
0 0.369512 0.230747
0.174762 0.370031 0.224308
0.37705 0.366293 0.201312
0.547112 0.362005 0.164843
0.698192 0.358984 0.161395
0.839872 0.358877 0.162325
0.948486 0.363714 0.22562
1 0.368612 0.229557
0 0.512444 0.217197
0 0.516304 0.216205
0.164355 0.516945 0.207034
0.369436 0.512612 0.185016
0.535912 0.508156 0.162234
0.689632 0.504952 0.152468
0.832517 0.50515 0.151247
0.937774 0.511177 0.214817
1 0.515801 0.218418
0 0.659602 0.209308
0 0.663569 0.204135
0.155413 0.664195 0.197543
0.358801 0.660166 0.182696
0.523323 0.655604 0.165103
0.678584 0.651484 0.151034
0.822538 0.650339 0.14461
0.926207 0.655482 0.19913
1 0.658274 0.204135
0 0.802655 0.207721
0 0.806271 0.210239
0.158022 0.806241 0.20145
0.35787 0.800793 0.183597
0.517617 0.79472 0.168811
0.671138 0.788403 0.153994
0.81413 0.784619 0.143694
0.914153 0.787945 0.191669
1 0.788037 0.191379
0 0.938079 0.214237
0 0.939895 0.215335
0.167559 0.938109 0.213275
0.351644 0.931395 0.206943
0.500862 0.923827 0.199969
0.646708 0.915877 0.19263
0.783856 0.910048 0.187274
0.90724 0.90724 0.184482
1 0.905348 0.182498
0 1 0.218662
0 1 0.217563
0.172442 1 0.213382
0.350729 1 0.205051
0.497566 1 0.196201
0.641779 1 0.187289
0.777523 1 0.180652
0.899886 1 0.176989
1 1 0.174487
0 0.00256352 0.400488
0.0210575 0 0.395789
0.194171 0 0.376547
0.384726 0 0.347692
0.541787 0 0.322301
0.677409 0 0.363226
0.815 0 0.358068
0.940291 0 0.35697
1 0 0.357961
0 0.111849 0.392447
0.0146334 0.109148 0.3897
0.189761 0.104677 0.378805
0.382589 0.0977493 0.344137
0.542535 0.0911879 0.31548
0.691905 0.0857404 0.297307
0.820417 0.0806439 0.36202
0.948928 0.0828565 0.363851
1 0.0870375 0.367575
0 0.230472 0.380697
0.00544747 0.230579 0.38056
0.185214 0.228824 0.378683
0.379339 0.224399 0.355673
0.546105 0.221241 0.304509
0.698848 0.218189 0.288884
0.842451 0.218326 0.283406
0.95552 0.219699 0.369146
1 0.22446 0.373587
0 0.36527 0.36495
0 0.368307 0.367483
0.174258 0.369039 0.367895
0.367361 0.36582 0.364614
0.536706 0.363119 0.30985
0.697032 0.360449 0.264942
0.839246 0.360281 0.264652
0.963165 0.363821 0.288548
1 0.367697 0.36556
0 0.511284 0.353262
0 0.515297 0.355779
0.163546 0.516213 0.352499
0.359823 0.51284 0.33843
0.526009 0.509499 0.30277
0.690974 0.50663 0.245472
0.833616 0.506828 0.244663
0.961074 0.510689 0.250355
1 0.514656 0.354177
0 0.658686 0.343099
0 0.66276 0.342
0.154574 0.663844 0.336477
0.353811 0.660441 0.317449
0.520195 0.656474 0.283101
0.679667 0.652567 0.247425
0.824308 0.651453 0.234821
0.951156 0.653635 0.234989
1 0.656397 0.338827
0 0.801678 0.342184
0 0.805173 0.345129
0.157122 0.805402 0.331151
0.353307 0.800549 0.314916
0.513603 0.79472 0.290272
0.669352 0.788479 0.261006
0.814176 0.784665 0.239429
0.940978 0.784161 0.229877
1 0.785275 0.319799
0 0.936522 0.349584
0 0.938064 0.350973
0.165194 0.936049 0.348928
0.354345 0.928725 0.326894
0.512016 0.92015 0.295811
0.663966 0.91136 0.270878
0.806561 0.904952 0.248447
0.93283 0.902007 0.233448
1 0.902037 0.315648
0 1 0.35494
0 1 0.353964
0.168948 1 0.349477
0.347601 1 0.340276
0.494408 1 0.330449
0.638422 1 0.320836
0.774121 1 0.313741
0.896437 1 0.310048
1 1 0.307561
0 0 0.553475
0.0166476 0 0.549767
0.189899 0 0.535317
0.378836 0 0.508003
0.534035 0 0.496452
0.674098 0 0.514107
0.812009 0 0.508965
0.937636 0 0.508415
1 0 0.510262
0 0.108217 0.545617
0.0103456 0.105715 0.543175
0.186038 0.101244 0.536889
0.376715 0.094255 0.511666
0.536828 0.0883345 0.479881
0.687236 0.0836652 0.453758
0.81854 0.0787823 0.51577
0.947295 0.0812238 0.518456
1 0.0855573 0.52314
0 0.227756 0.534478
0.00260929 0.228168 0.535088
0.182849 0.226749 0.533791
0.375402 0.222354 0.52105
0.538582 0.219455 0.482231
0.693477 0.217227 0.451286
0.838895 0.217807 0.435386
0.954147 0.218326 0.52578
1 0.223011 0.530846
0 0.363577 0.519112
0 0.366812 0.522637
0.172869 0.367651 0.523674
0.366003 0.364477 0.520546
0.527977 0.361746 0.493706
0.68983 0.359976 0.429709
0.835264 0.360189 0.413703
0.965133 0.364172 0.41088
1 0.366339 0.52314
0 0.509941 0.507759
0 0.513848 0.511818
0.161913 0.514656 0.512718
0.354849 0.511345 0.509422
0.512459 0.50811 0.506188
0.677089 0.50634 0.436118
0.831128 0.507271 0.381628
0.959213 0.510994 0.385489
1 0.515282 0.417136
0 0.657328 0.497612
0 0.661295 0.501671
0.152697 0.662409 0.501961
0.346639 0.659144 0.493736
0.506813 0.655573 0.476112
0.666331 0.652247 0.430014
0.824109 0.651621 0.357427
0.950484 0.653574 0.358465
1 0.656291 0.364385
0 0.800198 0.497765
0 0.803571 0.50132
0.154513 0.803723 0.495628
0.346853 0.798947 0.482597
0.505745 0.793362 0.456214
0.663737 0.787427 0.409659
0.813275 0.783764 0.363546
0.940703 0.783215 0.34786
1 0.783505 0.345907
0 0.934432 0.506294
0 0.935714 0.507744
0.162158 0.933425 0.505501
0.351263 0.926177 0.479515
0.504753 0.917967 0.455756
0.657374 0.909316 0.421454
0.802609 0.903029 0.383795
0.930983 0.900175 0.356924
1 0.89868 0.34345
0 1 0.511482
0 1 0.510353
0.164813 1 0.505592
0.343954 1 0.495964
0.496864 1 0.465461
0.650401 1 0.423972
0.792676 1 0.393896
0.91342 1 0.392538
1 1 0.452628
0 0 0.709224
0.0119631 0 0.70576
0.185382 0 0.69955
0.371649 0 0.689357
0.527047 0 0.679561
0.670939 0 0.671046
0.809186 0 0.66627
0.935149 0 0.66601
1 0 0.668086
0 0.104723 0.701625
0.00627146 0.102449 0.699367
0.182391 0.0981918 0.694804
0.372412 0.0911269 0.677806
0.532021 0.0853895 0.651743
0.679713 0.0801709 0.644953
0.8168 0.0770581 0.673808
0.945785 0.0797131 0.6766
1 0.0842145 0.681224
0 0.225208 0.691508
4.57771e-05 0.225956 0.692348
0.180743 0.224857 0.69131
0.372763 0.220508 0.684932
0.533318 0.217426 0.661402
0.687892 0.215503 0.63035
0.834394 0.216464 0.607172
0.95285 0.217014 0.68365
1 0.221607 0.688396
0 0.36202 0.677272
0 0.365423 0.680797
0.171618 0.366354 0.681804
0.364767 0.363195 0.678645
0.523796 0.360159 0.666148
0.680812 0.35819 0.62327
0.828992 0.359045 0.591409
0.961013 0.363394 0.576867
1 0.365057 0.680735
0 0.508629 0.666194
0 0.512474 0.669978
0.160571 0.513298 0.670771
0.353582 0.510048 0.667506
0.511177 0.506844 0.664302
0.666728 0.504692 0.63444
0.822736 0.50634 0.564569
0.954437 0.510338 0.549691
1 0.515251 0.546395
0 0.656031 0.656031
0 0.660014 0.660014
0.151354 0.661067 0.661067
0.343969 0.657664 0.657664
0.500725 0.653864 0.653864
0.65005 0.65005 0.65005
0.807492 0.649927 0.571221
0.946593 0.652766 0.510094
1 0.655207 0.512535
0 0.798764 0.655756
0 0.801984 0.658991
0.152163 0.801862 0.658747
0.34165 0.796872 0.652628
0.496269 0.791104 0.641108
0.647105 0.785092 0.618875
0.796994 0.781659 0.566033
0.93901 0.781903 0.483024
1 0.781949 0.481849
0 0.932326 0.663127
0 0.933364 0.664164
0.159136 0.930831 0.661631
0.344976 0.9234 0.647318
0.496269 0.915129 0.62948
0.647242 0.906584 0.596918
0.795254 0.900587 0.543908
0.928878 0.89807 0.49218
1 0.896376 0.49424
0 1 0.667033
0 1 0.665583
0.160723 1 0.660655
0.340429 1 0.651026
0.492958 1 0.619226
0.641566 1 0.591241
0.78497 1 0.554223
0.902235 1 0.56733
1 1 0.616938
0 0 0.849439
0.00862135 0 0.845991
0.182147 0 0.839887
0.368841 0 0.829831
0.524758 0 0.820218
0.66894 0 0.811978
0.807523 0 0.807523
0.933806 0 0.807614
1 0 0.81004
0 0.102296 0.842176
0.00370794 0.100267 0.840177
0.180285 0.0962997 0.83621
0.369574 0.0890516 0.82887
0.526741 0.0826581 0.822416
0.674464 0.0777295 0.817456
0.816205 0.0764324 0.816205
0.945373 0.0792859 0.819181
1 0.0838941 0.823941
0 0.223774 0.833066
0 0.224857 0.834241
0.180179 0.224079 0.833524
0.372168 0.219883 0.829023
0.531151 0.216648 0.815076
0.684535 0.214633 0.791135
0.827726 0.21474 0.789654
0.952544 0.216693 0.826352
1 0.221225 0.831022
0 0.361547 0.819806
0 0.365087 0.823468
0.171771 0.366079 0.824537
0.364721 0.362921 0.821393
0.522194 0.359609 0.8159
0.675822 0.357229 0.791287
0.823697 0.358236 0.760647
0.95697 0.362875 0.739025
1 0.364782 0.823468
0 0.508354 0.808911
0 0.512093 0.812589
0.160632 0.512993 0.813458
0.353536 0.509804 0.810254
0.510903 0.5066 0.80705
0.66305 0.504067 0.794156
0.813581 0.505226 0.750546
0.948257 0.50959 0.719036
1 0.514672 0.703304
0 0.655787 0.798779
0 0.659754 0.802747
0.151431 0.660761 0.803754
0.34374 0.657267 0.800259
0.50016 0.65333 0.796323
0.649302 0.649302 0.792309
0.796246 0.648234 0.760876
0.937392 0.651423 0.68574
1 0.654063 0.667781
0 0.798306 0.798306
0 0.801373 0.801373
0.151507 0.801053 0.801038
0.340368 0.795789 0.795773
0.493385 0.789685 0.789685
0.640238 0.78323 0.78323
0.778866 0.778866 0.778866
0.920729 0.779263 0.692927
1 0.78056 0.624048
0 0.931167 0.804959
0 0.931945 0.805753
0.157321 0.929168 0.80296
0.34139 0.921416 0.795087
0.490425 0.912856 0.78529
0.636545 0.904067 0.770184
0.777005 0.89778 0.746075
0.911406 0.895399 0.689403
1 0.894194 0.651087
0 1 0.808026
0 1 0.806332
0.157885 1 0.801221
0.337865 1 0.791424
0.486381 1 0.773648
0.632547 1 0.753063
0.774578 1 0.719448
0.892363 1 0.733013
1 1 0.757366
0 0 0.97409
0.00695811 0 0.970687
0.180636 0 0.964691
0.367605 0 0.954818
0.523781 0 0.945449
0.668299 0 0.937545
0.807202 0 0.93341
0.933822 0 0.933822
1 0 0.936599
0 0.101167 0.967239
0.00297551 0.0994125 0.965515
0.179995 0.0957656 0.961883
0.369589 0.088838 0.954879
0.526864 0.0827649 0.94876
0.674922 0.0781567 0.944121
0.816922 0.0771191 0.943114
0.946258 0.0801404 0.946258
1 0.0848554 0.951141
0 0.223682 0.959197
0 0.225071 0.960693
0.181384 0.224582 0.960266
0.373312 0.220615 0.956313
0.530434 0.217075 0.952758
0.680735 0.214237 0.949935
0.823804 0.214237 0.949996
0.95346 0.217563 0.95346
1 0.22208 0.958129
0 0.362341 0.946838
0 0.366003 0.950607
0.173587 0.367041 0.95172
0.36611 0.363851 0.948547
0.522698 0.360388 0.944747
0.674647 0.357763 0.930785
0.821134 0.358602 0.908446
0.950942 0.362295 0.910475
1 0.365743 0.950622
0 0.5093 0.936034
0 0.512978 0.939651
0.162402 0.513954 0.940597
0.354971 0.510811 0.937438
0.511818 0.507622 0.934249
0.662562 0.504814 0.929107
0.809186 0.505318 0.905959
0.943404 0.509514 0.876402
1 0.514626 0.853437
0 0.656779 0.925963
0 0.660716 0.9299
0.153109 0.661662 0.930846
0.34493 0.658045 0.927245
0.500725 0.653971 0.923156
0.649744 0.649744 0.918944
0.79266 0.64799 0.906157
0.927749 0.650202 0.860746
1 0.653071 0.825483
0 0.799054 0.925246
0 0.801938 0.92813
0.152407 0.801389 0.927581
0.340703 0.795865 0.922057
0.493187 0.789517 0.915724
0.639811 0.782818 0.90901
0.778195 0.778195 0.904402
0.908736 0.777264 0.871138
1 0.77882 0.789242
0 0.931151 0.931151
0 0.931685 0.931685
0.157015 0.928649 0.928634
0.340658 0.920638 0.920638
0.489097 0.911833 0.911833
0.63357 0.90277 0.90277
0.769863 0.896056 0.896056
0.892561 0.892561 0.892561
1 0.892409 0.805737
0 1 0.933364
0 1 0.931456
0.156588 1 0.926162
0.336492 1 0.916243
0.483085 1 0.905745
0.626825 1 0.89424
0.763943 1 0.880156
0.885771 1 0.878431
1 1 0.882109
0 0 1
0.00598154 0 1
0.179843 0 1
0.367025 0 1
0.523384 0 1
0.668238 0 1
0.807477 0 1
0.934432 0 1
1 0 1
0 0.100587 1
0.00302129 0.0991226 1
0.180499 0.0957961 1
0.370306 0.089189 1
0.527535 0.0834516 1
0.675959 0.0791485 1
0.818173 0.0783246 1
0.947662 0.0814832 1
1 0.0862745 1
0 0.224155 1
0.00141909 0.225864 1
0.183352 0.22565 1
0.375113 0.221866 1
0.531777 0.218463 1
0.682231 0.215671 1
0.825254 0.215641 1
0.954803 0.21886 1
1 0.223453 1
0 0.363653 1
0 0.367407 1
0.176028 0.36846 1
0.368032 0.365225 1
0.523903 0.3617 1
0.674296 0.358755 1
0.817319 0.358755 1
0.947158 0.36231 1
1 0.367147 1
0 0.510674 1
0 0.514366 1
0.164813 0.515419 1
0.356954 0.512306 1
0.513161 0.509102 1
0.663615 0.506157 1
0.808103 0.506203 1
0.940673 0.509926 1
1 0.513741 1
0 0.658228 1
0 0.662135 1
0.155383 0.662989 1
0.346609 0.659266 1
0.501701 0.655024 1
0.650584 0.650584 1
0.791653 0.64831 1
0.922438 0.649622 1
1 0.652094 0.978347
0 0.800198 1
0 0.802899 1
0.153796 0.802106 1
0.341466 0.796338 1
0.493355 0.789746 1
0.639796 0.782788 1
0.77792 0.77792 1
0.904189 0.776226 1
1 0.776623 0.960922
0 0.931533 1
0 0.931807 1
0.157229 0.928512 1
0.340383 0.920272 1
0.488487 0.911238 1
0.632792 0.901991 1
0.768948 0.895155 1
0.891554 0.891554 1
1 0.890105 0.975647
0 1 1
0 1 1
0.15584 1 1
0.335531 1 1
0.482017 1 1
0.625422 1 1
0.760967 1 1
0.883375 1 1
1 1 1
